icons/notebook.svg

<svg xmlns="http://www.w3.org/2000/svg" viewBox="0 0 24 24"><path fill="#5c6bc0" d="M3 7V5h2V4a2 2 0 0 1 2-2h6v7l2.5-1.5L18 9V2h1c1.05 0 2 .95 2 2v16c0 1.05-.95 2-2 2H7c-1.05 0-2-.95-2-2v-1H3v-2h2v-4H3v-2h2V7zm4 4H5v2h2zm0-4V5H5v2zm0 12v-2H5v2z"/></svg>

<svg xmlns="http://www.w3.org/2000/svg" viewBox="0 0 24 24" width="16px" height="16px">
    <path fill="#5C6BC0"
          d="M3,7V5H5V4C5,2.89 5.9,2 7,2H13V9L15.5,7.5L18,9V2H19C20.05,2 21,2.95 21,4V20C21,21.05 20.05,22 19,22H7C5.95,22 5,21.05 5,20V19H3V17H5V13H3V11H5V7H3M7,11H5V13H7V11M7,7V5H5V7H7M7,19V17H5V19H7Z" />
</svg>
